X: 16
T: No_24_Song_of_a_Medicine_Man_at_Nitinat_Lake_(b).krn
N: Derived from No_24_Song_of_a_Medicine_Man_at_Nitinat_Lake_(b).krn
%%abc-version 2.0
%%abcx-abcm2ps-target-version 5.9.1 (29 Sep 2008)
%%abc-creator hum2abc beta
%%abcx-conversion-date 2019/03/15 08:26:49
%%humdrum-veritas 3493923305
%%humdrum-veritas-data 1656942560
%%linebreak <none>
%%barnumbers 0
L: 1/8
M: 3/4
%%staves {1 2}
V: 1 clef=bass
V: 2 clef=bass
K: G
[V:1] [K:clef=bass][M:3/4]CB, CB,A,2 ||  
[V:2] [K:clef=bass][M:3/4]G,,/G,,/G,,/G,,/ G,,/G,,/G,,/G,,/ G,,/G,,/G,,/G,,/ ||  
[V:1] [M:2/4]B,2A,F,/D,/ | 
[V:2] [M:2/4]z4 | 
[V:1] D,3/E,/ D, z | 
[V:2] z4 | 
[V:1] A,2A,2 | 
[V:2] z4 | 
[V:1] (3B,A,G,-G,2- | 
[V:2] z4 | 
[V:1] G,2z2 ||  
[V:2] z4 ||  
[V:1] [M:3/4]A,2B,/A,/B,/A,/ G, z ||  
[V:2] [M:3/4]z6 ||  
[V:1] [M:2/4]B,/A,/B,/A,/ F,/E,/ z | 
[V:2] [M:2/4]z4 | 
[V:1] D,3/E,/ D, z | 
[V:2] z4 | 
[V:1] B,,3/C,/ B,, z | 
[V:2] z4 | 
[V:1] E,D,/E,/ D, z | 
[V:2] z4 | 
[V:1] A,2(3:2:4!accent!B,A,E,/ z/ | 
[V:2] z4 | 
[V:1] D,2D, z | 
[V:2] z4 | 
[V:1] A,2A,2 | 
[V:2] z4 | 
[V:1] (3B,A,G,-G,2 |]  
[V:2] z4 |]  



